assets/images/me_section/Frame.svg

<svg width="160" height="259" viewBox="0 0 160 259" fill="none" xmlns="http://www.w3.org/2000/svg">
<g clip-path="url(#clip0_48_353)">
<path d="M65.1059 241.266H117.284V245.306H65.1059V241.266Z" fill="white" stroke="#262626" stroke-width="0.577193" stroke-miterlimit="10"/>
<path d="M96.736 221.18C96.736 221.18 90.0406 227.067 81.3827 224.412C72.7248 221.757 45.9431 213.099 45.9431 213.099L54.2547 205.711C54.2547 205.711 82.5371 205.711 96.0434 204.326L102.97 210.79L96.736 221.18Z" fill="white" stroke="#262626" stroke-width="0.577193" stroke-miterlimit="10"/>
<path d="M62.3357 142.797C62.3357 142.797 55.1785 153.302 66.1451 167.732C77.1118 182.162 93.2732 201.786 93.2732 201.786C93.2732 201.786 101.354 214.485 96.7364 221.065L128.713 190.704L62.3357 142.797Z" fill="white" stroke="#262626" stroke-width="0.577193" stroke-miterlimit="10"/>
<path d="M179.391 135.41L245.652 210.56C245.652 210.56 266.431 234.802 258.351 248.655C250.27 262.507 232.031 259.275 219.794 253.965C207.558 248.655 62.3359 142.913 62.3359 142.913L181.815 40.6344L238.726 83.4621L179.391 135.41Z" fill="white" stroke="#262626" stroke-width="0.577193" stroke-miterlimit="10"/>
<path d="M145.566 107.936L119.939 92.6978L82.5369 125.598L106.894 144.53L145.566 107.936Z" fill="#FF6B00" stroke="#262626" stroke-width="0.577193" stroke-miterlimit="10"/>
<path d="M161.267 107.936L97.5445 64.5308L58.8726 98.5852L122.595 144.53L161.267 107.936Z" fill="white" stroke="#262626" stroke-width="0.577193" stroke-miterlimit="10"/>
<path d="M113.359 87.7334L99.2758 99.6236L137.14 130.561L161.959 107.127L113.359 87.7334Z" fill="#262626"/>
<path d="M233.3 240.575L125.596 153.88L149.838 129.754L233.3 240.575Z" fill="#262626"/>
<path d="M271.856 203.864L138.64 48.5994L99.8529 82.6538L233.3 240.574L271.856 203.864Z" fill="white" stroke="#262626" stroke-width="0.577193" stroke-miterlimit="10"/>
<path d="M181.815 86.2316L265.508 18.2383C267.24 36.1313 274.859 54.2551 274.859 54.2551L356.358 131.137L328.307 155.495L330.154 156.996C343.545 170.386 330.154 186.548 330.154 186.548L255.003 252.579C264.469 239.534 253.041 221.064 253.041 221.064L179.16 135.293C157.458 109.088 181.815 86.2316 181.815 86.2316Z" fill="white" stroke="#262626" stroke-width="0.577193" stroke-miterlimit="10"/>
<path d="M65.1072 205.712L78.498 245.307H14.8914L0.346085 205.712H65.1072Z" fill="white" stroke="#262626" stroke-width="0.577193" stroke-miterlimit="10"/>
<path d="M113.013 205.712C113.013 205.712 115.437 202.941 108.973 190.589C102.508 178.122 84.6153 161.499 84.6153 161.499C84.6153 161.499 77.3427 154.226 76.0729 152.956L128.713 190.935L113.013 205.712Z" fill="#262626"/>
<circle cx="8.79177" cy="8.79177" r="8.51703" transform="matrix(-1 0 0 1 47.8193 217.596)" fill="white" stroke="#262626" stroke-width="0.549486"/>
</g>
<defs>
<clipPath id="clip0_48_353">
<rect width="493.269" height="258.698" fill="white" transform="matrix(-1 0 0 1 493.27 0)"/>
</clipPath>
</defs>
</svg>

<svg width="160" height="259" fill="none" xmlns="http://www.w3.org/2000/svg"><g clip-path="url(#a)"><path d="M65.106 241.266h52.178v4.04H65.106v-4.04zM96.736 221.18s-6.695 5.887-15.353 3.232c-8.658-2.655-35.44-11.313-35.44-11.313l8.312-7.388s28.282 0 41.788-1.385l6.927 6.464-6.234 10.39z" fill="#fff" stroke="#262626" stroke-width=".577" stroke-miterlimit="10"/><path d="M62.336 142.797s-7.157 10.505 3.81 24.935c10.966 14.43 27.127 34.054 27.127 34.054s8.081 12.699 3.463 19.279l31.977-30.361-66.377-47.907z" fill="#fff" stroke="#262626" stroke-width=".577" stroke-miterlimit="10"/><path d="m179.391 135.41 66.261 75.15s20.779 24.242 12.699 38.095c-8.081 13.852-26.32 10.62-38.557 5.31-12.236-5.31-157.458-111.052-157.458-111.052L181.815 40.634l56.911 42.828-59.335 51.948z" fill="#fff" stroke="#262626" stroke-width=".577" stroke-miterlimit="10"/><path d="m145.566 107.936-25.627-15.238-37.402 32.9 24.357 18.932 38.672-36.594z" fill="#FF6B00" stroke="#262626" stroke-width=".577" stroke-miterlimit="10"/><path d="M161.267 107.936 97.545 64.531 58.873 98.585l63.722 45.945 38.672-36.594z" fill="#fff" stroke="#262626" stroke-width=".577" stroke-miterlimit="10"/><path d="m113.359 87.733-14.083 11.89 37.864 30.938 24.819-23.434-48.6-19.394zM233.3 240.575 125.596 153.88l24.242-24.126L233.3 240.575z" fill="#262626"/><path d="M271.856 203.864 138.64 48.599 99.853 82.654 233.3 240.574l38.556-36.71z" fill="#fff" stroke="#262626" stroke-width=".577" stroke-miterlimit="10"/><path d="m181.815 86.232 83.693-67.994c1.732 17.893 9.351 36.017 9.351 36.017l81.499 76.882-28.051 24.358 1.847 1.501c13.391 13.39 0 29.552 0 29.552l-75.151 66.031c9.466-13.045-1.962-31.515-1.962-31.515l-73.881-85.771c-21.702-26.205 2.655-49.061 2.655-49.061zM65.107 205.712l13.391 39.595H14.891L.346 205.712h64.761z" fill="#fff" stroke="#262626" stroke-width=".577" stroke-miterlimit="10"/><path d="M113.013 205.712s2.424-2.771-4.04-15.123c-6.465-12.467-24.358-29.09-24.358-29.09l-8.542-8.543 52.64 37.979-15.7 14.777z" fill="#262626"/><circle cx="8.792" cy="8.792" r="8.517" transform="matrix(-1 0 0 1 47.82 217.596)" fill="#fff" stroke="#262626" stroke-width=".549"/></g><defs><clipPath id="a"><path fill="#fff" transform="matrix(-1 0 0 1 493.27 0)" d="M0 0h493.269v258.698H0z"/></clipPath></defs></svg>
